X:1
T:BWV 0781
T:Invention 10    (A = 415 Hz)
T:Johann Sebastian Bach
%%score { 1 | 2 }
L:1/8
Q:1/4=184
M:9/8
K:G
V:1 treble 
V:2 bass 
V:1
"^Presto" GBd BGd BGg | g/4f/4g/4f/4g/4f/4g/4f/4d afd afd | gdB =fdB fdB | ecA FAc edc | %4
 dBG EGB dcB | cAF DFA cBA | B/4A/4B/cd eBg eBg | AB^c dAf dAf | G/4F/4G/- G2- GAG FGE | %9
 FGF EFD ABc | B/4A/4B/cB ABG efg | ^c/4B/4c/dc BcA gab | agf efd Ad^c | d/4c/4d/- d2 z2 z z2 z | %14
 A^ce cAe cAg | g/4f/4g/4f/4g/4f/4g/4f/4g/4f/4g/4f/4 d3 z2 z | GBd BGd BG=f | ecA aec ABc | %18
 dBG gdB GAB | %19
 d/4c/4d/4c/4d/4c/4d/4c/4d/4c/4d/4c/4 d/4c/4d/4c/4d/4c/4d/4c/4d/4c/4d/4c/4 d/4c/4d/4c/4d/4c/4d/4c/4d/4c/4d/4c/4 | %20
 d/4c/4d/4c/4d/4c/4d/4c/4d/4c/4d/4c/4 d/4c/4d/4c/4d/4c/4d/4c/4d/4c/4d/4c/4 d/4c/4d/4c/4d/4c/4d/4c/4d/4c/4d/4c/4 | %21
 c/4B/4c/4B/4c/4B/4c/4B/4c/4B/4c/4B/4 c/4B/4c/4B/4c/4B/4c/4B/4c/4B/4c/4B/4 c/4B/4c/4B/4c/4B/4c/4B/4c/4B/4c/4B/4 | %22
 c/4B/4c/4B/4c/4B/4c/4B/4c/4B/4c/4B/4 c/4B/4c/4B/4c/4B/4c/4B/4c/4B/4c/4B/4 c/4B/4c/4B/4c/4B/4c/4B/4c/4B/4c/4B/4 | %23
 c/4B/4c/4B/4ed cdB ABG | AcB ABG FGE | F/4E/4F/4E/4F/4E/4F/4E/4 D A/4G/4A/-A F d/4c/4d/-d F | %26
 GBd BGd BGg | dfa fda fdc' | bag fga dgf | gfe dcB ABc | BAG FGA DGF | GDB, G,3 z2 z |] %32
V:2
 z9 | D,F,A, F,D,A, F,D,C | C/4B,/4C/4B,/4C/4B,/4C/4B,/4 G, DB,G, DB,G, | CEC A,CA, F,G,A, | %4
 B,DB, G,B,G, E,F,G, | A,CA, F,A,F, D,E,F, | G,/4F,/4G,/- G,2- G,F,E, D,E,^C, | %7
 F,/4E,/4F,/- F,2- F,E,D, ^C,D,B,, | E,F,G, A,E,^C A,E,C | D/4C/4D/- D2- DD,E, F,E,D, | %10
 G,/4F,/4G,/- G,2- G,E,F, G,F,E, | A,/4G,/4A,/- A,2- A,G,F, E,D,^C, | D,E,F, G,A,B, A,2 A,, | %13
 D,F,A, F,D,A, F,D,D | ^C/4B,/4C/4B,/4C/4B,/4C/4B,/4C/4B,/4C/4B,/4 A,3 z2 z | D,F,A, F,D,A, F,D,C | %16
 B,/4A,/4B,/4A,/4B,/4A,/4B,/4A,/4B,/4A,/4B,/4A,/4 G,3 z2 z | C,/4B,,/4C,/- C,2- C,D,E, F,,G,,A,, | %18
 B,,/4A,,/4B,,/- B,,2- B,,C,D, E,,F,,G,, | A,,C,E, A,E,C, A,,B,,C, | D,F,A, DA,F, D,E,F, | %21
 G,B,D GDB, G,A,B, | E,G,B, EB,G, E,F,G, | %23
 D,/4C,/4D,/4C,/4D,/4C,/4D,/4C,/4D,/4C,/4D,/4C,/4 D,/4C,/4D,/4C,/4D,/4C,/4D,/4C,/4D,/4C,/4D,/4C,/4 D,/4C,/4D,/4C,/4D,/4C,/4D,/4C,/4D,/4C,/4D,/4C,/4 | %24
 D,/4C,/4D,/4C,/4D,/4C,/4D,/4C,/4D,/4C,/4D,/4C,/4 D,/4C,/4D,/4C,/4D,/4C,/4D,/4C,/4D,/4C,/4D,/4C,/4 D,/4C,/4D,/4C,/4D,/4C,/4D,/4C,/4D,/4C,/4D,/4C,/4 | %25
 D,/4C,/4D,/4C,/4D,F, A,F,D, C,B,,A,, | B,,G,,B,, D,B,,G,, D,B,,G,, | %27
 F,,D,,F,, A,,F,,D,, A,,F,,D,, | G,,A,,B,, A,,B,,C, B,,C,D, | E,,3- E,,2 E, F,E,D, | %30
 G,/4F,/4G,/-G, B,, E,D,C, D,/4C,/4D,/-D, D,, | G,,3- G,,B,,D, G,3 |] %32

